X: 10776
T: Dr. Shaw
R: strathspey
M: 4/4
K: Dmajor
A,/|D2F<D A>D (3dcB|=c2G>G E>GC>E|D2F>D A>A (3dcB|(3AGF (3GFE F<D D>A,|
D2F>D A>A (3dcB|=c2G>G E>GC>E|D2F>D A>D (3dcB|(3AGF (3GFE F<D D>g||
(3fed (3cde (3dcB (3AB=c|E<=CC>C E<GG>g|(3fed (3cde (3dcB (3ABc|d>A (3BAG F<AA>g|
(3fed (3cde (3dcB (3AB=c|E<=CC>C E<GG>B|(3DGB (3dgb (3EGB (3egb|(3agf (3gfe f<dd3/2||

